src/assets/images/stoneNone.svg

<svg width="23" height="14" viewBox="0 0 23 14" fill="none" xmlns="http://www.w3.org/2000/svg">
<g clip-path="url(#clip0_105_988)">
<g opacity="0.5">
<path d="M11.5 0.682495C4.31923 0.682495 1.76368 6.2475 1.76368 6.2475C-0.0360081 10.1325 2.08762 13.3175 6.46086 13.3175H16.5211C20.8944 13.3175 23.018 10.1325 21.2363 6.2475C21.2363 6.2475 18.6807 0.682495 11.5 0.682495Z" fill="#B2B1B1"/>
</g>
<g opacity="0.23">
<path d="M11.4993 0C3.54464 0 0.701138 6.16 0.701138 6.16C-1.27852 10.465 1.06108 14 5.92023 14H17.0603C21.9195 14 24.259 10.4825 22.2794 6.16C22.2794 6.16 19.4359 0 11.4813 0L11.4993 0Z" fill="#B2B1B1"/>
</g>
<g opacity="0.13">
<path d="M11.5 0.682495C3.94129 0.682495 1.22377 6.54499 1.22377 6.54499C-0.665905 10.64 1.56571 14 6.1909 14H16.7911C21.4163 14 23.6479 10.64 21.7582 6.54499C21.7582 6.54499 19.0587 0.682495 11.5 0.682495Z" fill="#B2B1B1"/>
</g>
<g opacity="0.3">
<path d="M11.5 0C3.94129 0 1.22377 5.8625 1.22377 5.8625C-0.665905 9.9575 1.56571 13.3175 6.1909 13.3175H16.7911C21.4163 13.3175 23.6479 9.9575 21.7582 5.8625C21.7582 5.8625 19.0587 0 11.5 0V0Z" fill="#B2B1B1"/>
</g>
</g>
<defs>
<clipPath id="clip0_105_988">
<rect width="23" height="14" fill="white"/>
</clipPath>
</defs>
</svg>

<?xml version="1.0" encoding="utf-8"?>
<!-- Generator: Adobe Illustrator 27.2.0, SVG Export Plug-In . SVG Version: 6.00 Build 0)  -->
<svg version="1.1" id="レイヤー_1" xmlns="http://www.w3.org/2000/svg" xmlns:xlink="http://www.w3.org/1999/xlink" x="0px"
	 y="0px" viewBox="0 0 23 14" style="enable-background:new 0 0 23 14;" xml:space="preserve">
<style type="text/css">
	.st0{opacity:0.2;}
	.st1{clip-path:url(#SVGID_00000074437993233834905520000012867880500003932840_);}
	.st2{opacity:0.5;}
	.st3{fill:#B2B1B1;}
	.st4{opacity:0.23;}
	.st5{opacity:0.13;}
	.st6{opacity:0.3;}
</style>
<g class="st0">
	<defs>
		<rect id="SVGID_1_" y="0" class="st0" width="23" height="14"/>
	</defs>
	<clipPath id="SVGID_00000001636814429764335240000011775740753095360911_">
		<use xlink:href="#SVGID_1_"  style="overflow:visible;"/>
	</clipPath>
	<g style="clip-path:url(#SVGID_00000001636814429764335240000011775740753095360911_);">
		<g class="st2">
			<path class="st3" d="M11.5,0.7c-7.2,0-9.7,5.6-9.7,5.6c-1.8,3.9,0.3,7.1,4.7,7.1h10.1c4.4,0,6.5-3.2,4.7-7.1
				C21.2,6.2,18.7,0.7,11.5,0.7z"/>
		</g>
		<g class="st4">
			<path class="st3" d="M11.5,0C3.5,0,0.7,6.2,0.7,6.2c-2,4.3,0.4,7.8,5.2,7.8h11.1c4.9,0,7.2-3.5,5.2-7.8C22.3,6.2,19.4,0,11.5,0
				L11.5,0z"/>
		</g>
		<g class="st5">
			<path class="st3" d="M11.5,0.7C3.9,0.7,1.2,6.5,1.2,6.5c-1.9,4.1,0.3,7.5,5,7.5h10.6c4.6,0,6.9-3.4,5-7.5
				C21.8,6.5,19.1,0.7,11.5,0.7z"/>
		</g>
		<g class="st6">
			<path class="st3" d="M11.5,0C3.9,0,1.2,5.9,1.2,5.9c-1.9,4.1,0.3,7.5,5,7.5h10.6c4.6,0,6.9-3.4,5-7.5C21.8,5.9,19.1,0,11.5,0
				L11.5,0z"/>
		</g>
	</g>
</g>
</svg>
